preferences/24/preferences-desktop.svg

<?xml version="1.0" encoding="UTF-8" standalone="no"?>
<svg
  width="24"
  height="24"
  version="1.1"
  viewBox="0 0 24 24"
  id="svg22"
  xmlns:xlink="http://www.w3.org/1999/xlink"
  xmlns="http://www.w3.org/2000/svg"
  xmlns:svg="http://www.w3.org/2000/svg">
 <style
   type="text/css"
   id="current-color-scheme">
  .ColorScheme-Highlight {
        color:#3daee9;
      }
      </style>
 <defs
   id="defs12">
  <linearGradient
    id="linearGradient5">
   <stop
     style="stop-color:#ffffff;stop-opacity:0.55384701;"
     offset="0"
     id="stop5" />
   <stop
     style="stop-color:#ffffff;stop-opacity:0;"
     offset="1"
     id="stop6" />
  </linearGradient>
  <linearGradient
    id="linearGradient2">
   <stop
     style="stop-color:#000000;stop-opacity:1;"
     offset="0"
     id="stop2" />
   <stop
     style="stop-color:#000000;stop-opacity:0;"
     offset="1"
     id="stop4" />
  </linearGradient>
  <linearGradient
    id="linearGradient7">
   <stop
     style="stop-color:#141618;stop-opacity:1;"
     offset="0"
     id="stop7" />
   <stop
     style="stop-color:#686868;stop-opacity:1;"
     offset="0.53189832"
     id="stop9" />
   <stop
     style="stop-color:#31363b;stop-opacity:1;"
     offset="1"
     id="stop8" />
  </linearGradient>
  <linearGradient
    xlink:href="#linearGradient3487"
    id="linearGradient3403"
    gradientUnits="userSpaceOnUse"
    x1="6.9491749"
    y1="4.5549412"
    x2="11.215498"
    y2="59.052471" />
  <linearGradient
    id="linearGradient3487">
   <stop
     style="stop-color:#32373c;stop-opacity:1"
     offset="0"
     id="stop3481" />
   <stop
     id="stop3483"
     offset="0.36804965"
     style="stop-color:#1a1a1a;stop-opacity:1" />
   <stop
     style="stop-color:#31363b;stop-opacity:1"
     offset="1"
     id="stop3485" />
  </linearGradient>
  <linearGradient
    xlink:href="#linearGradient20604"
    id="linearGradient20558"
    gradientUnits="userSpaceOnUse"
    x1="25.802212"
    y1="20.373846"
    x2="25.111048"
    y2="58.912758" />
  <linearGradient
    id="linearGradient20604">
   <stop
     id="stop20598"
     offset="0"
     style="stop-color:#3d3d3d;stop-opacity:1" />
   <stop
     style="stop-color:#000000;stop-opacity:1"
     offset="0.61772454"
     id="stop20600" />
   <stop
     id="stop20602"
     offset="1"
     style="stop-color:#3d3d3d;stop-opacity:1" />
  </linearGradient>
  <filter
    style="color-interpolation-filters:sRGB"
    id="filter20720"
    x="-0.017154225"
    y="-0.016541574"
    width="1.0343069"
    height="1.0330831">
   <feGaussianBlur
     stdDeviation="0.14745661"
     id="feGaussianBlur20722" />
  </filter>
  <linearGradient
    xlink:href="#linearGradient7"
    id="linearGradient8"
    x1="17"
    y1="30"
    x2="17"
    y2="2"
    gradientUnits="userSpaceOnUse" />
  <linearGradient
    xlink:href="#linearGradient25179"
    id="linearGradient25181"
    x1="404.19382"
    y1="508.798"
    x2="437.21893"
    y2="495.798"
    gradientUnits="userSpaceOnUse"
    gradientTransform="matrix(0.96895931,0,0,1,12.92406,0)" />
  <linearGradient
    id="linearGradient25179">
   <stop
     style="stop-color:#1d1d1d;stop-opacity:1"
     offset="0"
     id="stop25175" />
   <stop
     style="stop-color:#393939;stop-opacity:1"
     offset="1"
     id="stop25177" />
  </linearGradient>
  <linearGradient
    xlink:href="#linearGradient30085"
    id="linearGradient30087"
    x1="19.622395"
    y1="13"
    x2="28.910711"
    y2="20"
    gradientUnits="userSpaceOnUse"
    gradientTransform="matrix(0.96895931,0,0,1,0.98669741,0)" />
  <linearGradient
    id="linearGradient30085">
   <stop
     style="stop-color:#161616;stop-opacity:1"
     offset="0"
     id="stop30081" />
   <stop
     style="stop-color:#3f3f3f;stop-opacity:1"
     offset="1"
     id="stop30083" />
  </linearGradient>
  <linearGradient
    xlink:href="#linearGradient1"
    id="linearGradient3"
    x1="24.722656"
    y1="8.9494314"
    x2="27.188816"
    y2="12.585334"
    gradientUnits="userSpaceOnUse" />
  <linearGradient
    id="linearGradient1">
   <stop
     style="stop-color:#000000;stop-opacity:1;"
     offset="0"
     id="stop1" />
   <stop
     style="stop-color:#939393;stop-opacity:0;"
     offset="1"
     id="stop3" />
  </linearGradient>
  <linearGradient
    xlink:href="#linearGradient7-3"
    id="linearGradient8-5"
    x1="12"
    y1="26"
    x2="12"
    y2="15.72011"
    gradientUnits="userSpaceOnUse" />
  <linearGradient
    id="linearGradient7-3">
   <stop
     style="stop-color:#252525;stop-opacity:1;"
     offset="0"
     id="stop7-5" />
   <stop
     style="stop-color:#606060;stop-opacity:0.33137864;"
     offset="1"
     id="stop8-6" />
  </linearGradient>
  <linearGradient
    xlink:href="#linearGradient9"
    id="linearGradient10"
    x1="3.5"
    y1="28"
    x2="15.062095"
    y2="18"
    gradientUnits="userSpaceOnUse" />
  <linearGradient
    id="linearGradient9">
   <stop
     style="stop-color:#252525;stop-opacity:1;"
     offset="0"
     id="stop9-2" />
   <stop
     style="stop-color:#606060;stop-opacity:0;"
     offset="1"
     id="stop10" />
  </linearGradient>
  <linearGradient
    xlink:href="#linearGradient9"
    id="linearGradient12"
    x1="29.512415"
    y1="27.45014"
    x2="22.118443"
    y2="19.444036"
    gradientUnits="userSpaceOnUse" />
  <linearGradient
    xlink:href="#linearGradient4219-7"
    id="linearGradient4463-2"
    y1="21.999729"
    y2="8"
    x2="0"
    gradientUnits="userSpaceOnUse"
    gradientTransform="matrix(1.0348206,0,0,1.0155157,-0.31338519,0.87583379)" />
  <linearGradient
    id="linearGradient4219-7">
   <stop
     style="stop-color:#eff0f1"
     id="stop4221-0" />
   <stop
     offset="1"
     style="stop-color:#fcfcfc"
     id="stop4223-9" />
  </linearGradient>
  <linearGradient
    xlink:href="#linearGradient2"
    id="linearGradient4"
    x1="12"
    y1="6.6342521"
    x2="24.427874"
    y2="18.694744"
    gradientUnits="userSpaceOnUse" />
  <linearGradient
    xlink:href="#linearGradient5"
    id="linearGradient6"
    x1="13.360265"
    y1="18.566776"
    x2="24.447359"
    y2="28.906574"
    gradientUnits="userSpaceOnUse" />
 </defs>
 <g
   id="g1"
   transform="matrix(0.73333333,0,0,0.73333333,0.26666667,0.26666667)">
  <path
    id="rect32304"
    style="display:inline;fill:url(#linearGradient25181);fill-opacity:1;stroke-width:1.41131"
    d="m 4,2.6368065 c -1.1630602,0 -1.872531,0.8149117 -2.3085938,1.3670997 0,0 -0.00192,0.00384 -0.00195,0.00391 C 1.6840326,4.019307 1.2207031,5.0058248 1.2207031,6 V 23.878906 L 12,17.124581 12.789523,17.501354 31,6 c 0,0 -3e-6,-3.3631935 -3,-3.3631935 z" />
  <path
    style="display:inline;fill:url(#linearGradient30087);fill-opacity:1;stroke:none;stroke-width:0.984357px;stroke-linecap:butt;stroke-linejoin:miter;stroke-opacity:1"
    d="m 12,18 3,6 16,2 V 6 Z"
    id="path14048" />
  <path
    id="path14463"
    style="color:#3daee9;display:inline;fill:#939393;fill-opacity:1;stroke:none;stroke-width:0.984357px;stroke-linecap:butt;stroke-linejoin:miter;stroke-opacity:1"
    class="ColorScheme-Highlight"
    d="M 12,17.124581 1.2207031,23.878906 V 26 C 1.2207031,28.800779 4,29.3194 4,29.3194 H 27.604154 C 27.604154,29.3194 31,28.652414 31,26 Z" />
  <path
    style="display:inline;fill:currentColor;fill-opacity:1;stroke:none;stroke-width:0.984357px;stroke-linecap:butt;stroke-linejoin:miter;stroke-opacity:1"
    d="M 12,18 31,6 v 4 z"
    id="path14597"
    class="ColorScheme-Highlight" />
  <path
    style="color:#3daee9;display:inline;fill:url(#linearGradient3);fill-opacity:1;stroke:none;stroke-width:0.984357px;stroke-linecap:butt;stroke-linejoin:miter;stroke-opacity:1"
    d="M 12,18 31,6 v 4 z"
    id="path14597-3" />
  <path
    style="display:inline;fill:url(#linearGradient8-5);fill-opacity:1;stroke:none;stroke-width:0.984357px;stroke-linecap:butt;stroke-linejoin:miter;stroke-opacity:1"
    d="M 12,18 V 28.67662 L 24,23 Z"
    id="path30406" />
  <path
    style="display:inline;fill:url(#linearGradient10);fill-opacity:1;stroke:none;stroke-width:0.984357px;stroke-linecap:butt;stroke-linejoin:miter;stroke-opacity:1"
    d="M 12,28.67662 5.8192229,20.997466 1.2207031,23.878906 V 26 C 1.2207031,28.796282 4,28.67662 4,28.67662 Z"
    id="path30501" />
  <path
    style="display:inline;fill:url(#linearGradient12);fill-opacity:1;stroke-width:0.226"
    d="M 24,23 26.401233,28.98158 30,29 31,26 Z"
    id="path59" />
  <path
    style="display:inline;fill:#252525;fill-opacity:1;stroke-width:0.226"
    d="M 12,28.67662 5.8192229,20.997466 12,17.124581 Z"
    id="path12" />
  <path
    style="display:inline;fill:#252525;fill-opacity:1;stroke-width:0.226"
    d="M 11.559519,28.883026 24,23 l 2.401233,5.98158 z"
    id="path14" />
  <path
    style="opacity:0.2;fill:url(#linearGradient6);fill-opacity:0.553847;stroke-width:0.226"
    d="M 27.198411,21.505494 16.110352,22.026196 15,24 12,24.035294 11,23.694444 17.305556,30 H 29 v -6.692917 z"
    id="path5" />
  <path
    style="opacity:0.2;fill:url(#linearGradient4);fill-opacity:0.553847;stroke-width:0.226"
    d="M 10.610362,11.957577 27.652785,29 H 30 V 13.565677 l -2.801589,-2.801589 z"
    id="path2" />
  <path
    style="fill:url(#linearGradient4463-2);stroke-width:1.02513"
    id="rect4437-6"
    d="m 20.681678,8.3771082 c -1.438256,0 -2.62923,1.0215078 -2.901985,2.3869798 h -7.169331 v 1.193489 h 7.169331 c 0.272755,1.365472 1.463729,2.38698 2.901985,2.38698 1.438266,0 2.629228,-1.021508 2.901984,-2.38698 h 3.614749 V 10.764088 H 23.583662 C 23.310906,9.398616 22.119944,8.3771082 20.681678,8.3771082 Z M 13.572514,19.118516 c -1.64102,0 -2.962152,1.330741 -2.962152,2.983723 0,1.652983 1.321132,2.983724 2.962152,2.983724 1.438243,0 2.629228,-1.021508 2.901984,-2.386979 h 10.723913 v -1.19349 H 16.474498 c -0.272756,-1.36547 -1.463741,-2.386978 -2.901984,-2.386978 z m 0,1.193488 c 0.984606,0 1.777291,0.798445 1.777291,1.790235 0,0.99179 -0.792685,1.790234 -1.777291,1.790234 -0.984607,0 -1.77729,-0.798444 -1.77729,-1.790234 0,-0.99179 0.792683,-1.790235 1.77729,-1.790235 z" />
  <path
    style="display:inline;mix-blend-mode:normal;fill:url(#linearGradient3403);fill-opacity:1;stroke:url(#linearGradient20558);stroke-width:1.16242;stroke-linecap:butt;stroke-linejoin:round;stroke-miterlimit:4;stroke-dasharray:none;stroke-opacity:1;filter:url(#filter20720)"
    d="M 5.4025265,3.5689324 V 60.09958 H 57.895271 l 2.018951,-2.018952 c 0,0 -24.171977,0.621351 -33.141048,-4.285423 C 16.257548,48.042344 11.459382,3.5689324 11.459382,3.5689324 Z"
    id="path1686"
    transform="matrix(0.49530655,0,0,0.49530655,0.32409325,0.23228439)" />
  <path
    id="rect5"
    style="display:inline;opacity:1;fill:url(#linearGradient8);stroke-width:0.226"
    d="M 5,1 C 1,1 1,5 1,5 v 21 c 0,5 4,5 4,5 h 22 c 0,0 4,0 4,-4 V 5 c 0,0 0,-4 -4,-4 z m 0,2 h 22 c 2,0 2,2 2,2 v 22 c 0,2 -2,2 -2,2 H 5 C 5,29 3,29 3,26 V 5 C 3,5 3,3 5,3 Z" />
 </g>
</svg>

<svg width="24" height="24" version="1.1" viewBox="0 0 24 24" xmlns="http://www.w3.org/2000/svg" xmlns:xlink="http://www.w3.org/1999/xlink">
<style id="current-color-scheme" type="text/css">.ColorScheme-Highlight {
        color:#3daee9;
      }</style>
<defs>
<linearGradient id="linearGradient3403" x1="6.9492" x2="11.215" y1="4.5549" y2="59.052" gradientUnits="userSpaceOnUse">
<stop style="stop-color:#32373c" offset="0"/>
<stop style="stop-color:#1a1a1a" offset=".36805"/>
<stop style="stop-color:#31363b" offset="1"/>
</linearGradient>
<linearGradient id="linearGradient20558" x1="25.802" x2="25.111" y1="20.374" y2="58.913" gradientUnits="userSpaceOnUse">
<stop style="stop-color:#3d3d3d" offset="0"/>
<stop offset=".61772"/>
<stop style="stop-color:#3d3d3d" offset="1"/>
</linearGradient>
<linearGradient id="linearGradient8" x1="17" x2="17" y1="30" y2="2" gradientUnits="userSpaceOnUse">
<stop style="stop-color:#141618" offset="0"/>
<stop style="stop-color:#686868" offset=".5319"/>
<stop style="stop-color:#31363b" offset="1"/>
</linearGradient>
<linearGradient id="linearGradient25181" x1="404.19" x2="437.22" y1="508.8" y2="495.8" gradientTransform="matrix(.96896 0 0 1 12.924 0)" gradientUnits="userSpaceOnUse">
<stop style="stop-color:#1d1d1d" offset="0"/>
<stop style="stop-color:#393939" offset="1"/>
</linearGradient>
<linearGradient id="linearGradient30087" x1="19.622" x2="28.911" y1="13" y2="20" gradientTransform="matrix(.96896 0 0 1 .9867 0)" gradientUnits="userSpaceOnUse">
<stop style="stop-color:#161616" offset="0"/>
<stop style="stop-color:#3f3f3f" offset="1"/>
</linearGradient>
<linearGradient id="linearGradient3" x1="24.723" x2="27.189" y1="8.9494" y2="12.585" gradientUnits="userSpaceOnUse">
<stop offset="0"/>
<stop style="stop-color:#939393;stop-opacity:0" offset="1"/>
</linearGradient>
<linearGradient id="linearGradient8-5" x1="12" x2="12" y1="26" y2="15.72" gradientUnits="userSpaceOnUse">
<stop style="stop-color:#252525" offset="0"/>
<stop style="stop-color:#606060;stop-opacity:.33138" offset="1"/>
</linearGradient>
<linearGradient id="linearGradient10" x1="3.5" x2="15.062" y1="28" y2="18" gradientUnits="userSpaceOnUse" xlink:href="#linearGradient9"/>
<linearGradient id="linearGradient9">
<stop style="stop-color:#252525" offset="0"/>
<stop style="stop-color:#606060;stop-opacity:0" offset="1"/>
</linearGradient>
<linearGradient id="linearGradient12" x1="29.512" x2="22.118" y1="27.45" y2="19.444" gradientUnits="userSpaceOnUse" xlink:href="#linearGradient9"/>
<linearGradient id="linearGradient4463-2" x2="0" y1="22" y2="8" gradientTransform="matrix(1.0348 0 0 1.0155 -.31339 .87583)" gradientUnits="userSpaceOnUse">
<stop style="stop-color:#eff0f1" offset="0"/>
<stop style="stop-color:#fcfcfc" offset="1"/>
</linearGradient>
<linearGradient id="linearGradient4" x1="12" x2="24.428" y1="6.6343" y2="18.695" gradientUnits="userSpaceOnUse">
<stop offset="0"/>
<stop style="stop-opacity:0" offset="1"/>
</linearGradient>
<linearGradient id="linearGradient6" x1="13.36" x2="24.447" y1="18.567" y2="28.907" gradientUnits="userSpaceOnUse">
<stop style="stop-color:#fff;stop-opacity:.55385" offset="0"/>
<stop style="stop-color:#fff;stop-opacity:0" offset="1"/>
</linearGradient>
</defs>
<g transform="matrix(.73333 0 0 .73333 .26667 .26667)">
<path d="m4 2.6368c-1.1631 0-1.8725 0.81491-2.3086 1.3671 0 0-0.00192 0.00384-0.00195 0.00391-0.0054236 0.011491-0.46875 0.99801-0.46875 1.9922v17.879l10.779-6.7543 0.78952 0.37677 18.21-11.501s-3e-6 -3.3632-3-3.3632z" style="fill:url(#linearGradient25181);stroke-width:1.4113"/>
<path d="m12 18 3 6 16 2v-20z" style="fill:url(#linearGradient30087)"/>
<path class="ColorScheme-Highlight" d="m12 17.125-10.779 6.7543v2.1211c0 2.8008 2.7793 3.3194 2.7793 3.3194h23.604s3.3958-0.66699 3.3958-3.3194z" style="color:#3daee9;fill:#939393"/>
<path class="ColorScheme-Highlight" d="m12 18 19-12v4z" style="fill:currentColor"/>
<path d="m12 18 19-12v4z" style="color:#3daee9;fill:url(#linearGradient3)"/>
<path d="m12 18v10.677l12-5.6766z" style="fill:url(#linearGradient8-5)"/>
<path d="m12 28.677-6.1808-7.6792-4.5985 2.8814v2.1211c0 2.7963 2.7793 2.6766 2.7793 2.6766z" style="fill:url(#linearGradient10)"/>
<path d="m24 23 2.4012 5.9816 3.5988 0.01842 1-3z" style="fill:url(#linearGradient12);stroke-width:.226"/>
<path d="m12 28.677-6.1808-7.6792 6.1808-3.8729z" style="fill:#252525;stroke-width:.226"/>
<path d="m11.56 28.883 12.44-5.883 2.4012 5.9816z" style="fill:#252525;stroke-width:.226"/>
<path d="m27.198 21.505-11.088 0.5207-1.1104 1.9738-3 0.035294-1-0.34085 6.3056 6.3056h11.694v-6.6929z" style="fill-opacity:.55385;fill:url(#linearGradient6);opacity:.2;stroke-width:.226"/>
<path d="m10.61 11.958 17.042 17.042h2.3472v-15.434l-2.8016-2.8016z" style="fill-opacity:.55385;fill:url(#linearGradient4);opacity:.2;stroke-width:.226"/>
<path d="m20.682 8.3771c-1.4383 0-2.6292 1.0215-2.902 2.387h-7.1693v1.1935h7.1693c0.27276 1.3655 1.4637 2.387 2.902 2.387 1.4383 0 2.6292-1.0215 2.902-2.387h3.6147v-1.1935h-3.6147c-0.27276-1.3655-1.4637-2.387-2.902-2.387zm-7.1092 10.741c-1.641 0-2.9622 1.3307-2.9622 2.9837 0 1.653 1.3211 2.9837 2.9622 2.9837 1.4382 0 2.6292-1.0215 2.902-2.387h10.724v-1.1935h-10.724c-0.27276-1.3655-1.4637-2.387-2.902-2.387zm0 1.1935c0.98461 0 1.7773 0.79844 1.7773 1.7902s-0.79268 1.7902-1.7773 1.7902c-0.98461 0-1.7773-0.79844-1.7773-1.7902s0.79268-1.7902 1.7773-1.7902z" style="fill:url(#linearGradient4463-2);stroke-width:1.0251"/>
<path transform="matrix(.49531 0 0 .49531 .32409 .23228)" d="m5.4025 3.5689v56.531h52.493l2.019-2.019s-24.172 0.62135-33.141-4.2854c-10.516-5.7529-15.314-50.226-15.314-50.226z" style="fill:url(#linearGradient3403);mix-blend-mode:normal;stroke-linejoin:round;stroke-width:1.1624;stroke:url(#linearGradient20558)"/>
<path d="m5 1c-4 0-4 4-4 4v21c0 5 4 5 4 5h22s4 0 4-4v-22s0-4-4-4zm0 2h22c2 0 2 2 2 2v22c0 2-2 2-2 2h-22s-2 0-2-3v-21s0-2 2-2z" style="fill:url(#linearGradient8);stroke-width:.226"/>
</g>
</svg>
